X:549
T:Dornoch Links #1
C:Joe Buchanan's Scottish Tome - Page 095.1
I:095 1
R:Reel
L:1/8
M:2/4
K:A
(af) | "A"eA "E"cB/c/ | "A"eA "E"A(a/f/) | "A"eA "F#m"c(B/c/) | "B7"fB "E7"B(c/d/) |
"A"e/f/e/d/ "E"c(B/A/) | "A"ce "F#m"a>c | "B7"df "E7"B(e/d/) | "A"cA A :|
e | "A"a2 "E"e(f/g/) | "A"a(e/d/) "E"c(B/A/) | "A"a2 "F#m"e/f/e/c/ | "B7"dB "E7"B>e | 
"A"a2 "E"e(f/g/) | "A"a/e/f/d/ "F#m"c(B/A/) | "B7"df "E7"B(e/d/) | "A"cA A :|

